X: 1
T:Tripping up the Stairs  "Arranged by Terry Tully"
M:6/8
L:1/8
Q:80
C:Traditional Irish
S:Jig
K:HP
|: f|
{g}A{d}A{e}A{g}G{d}B{G}B|
{g}Ad{c}d{g}fed|
c{e}c{G}c{g}ABc|  !
{g}dfe{g}dcB{g}A{d}A{e}A{g}G{d}B{G}B|
{g}Ad{c}d{g}fed|
c{e}c{G}c{g}ABc|  !
{g}dfe{Gdc}d2:| |:
c|
{g}dB{G}B{g}fB{G}B|
f{g}f{e}f{g}fed|  !
{g}c{d}A{e}A{g}ec{d}A|
{g}ce{A}e{g}edc{g}dB{G}B{g}fB{G}B|
f{g}f{e}f{g}fed|  !
c{e}c{G}c{g}ABc|
{g}dfe{Gdc}d2:|
